icons/speech-bubble-help-outline.svg

<svg xmlns="http://www.w3.org/2000/svg" width="24" height="24" viewBox="0 0 24 24">
  <path d="M15,3 C19.5522847,3 23,6.44771525 23,11 C23,15.5522847 19.5522847,19 15,19 L15,19 L14.492,19 L14.4215793,19.0906275 C13.7103901,19.9663638 12.948642,20.6393906 11.8907103,21.256749 L11.8907103,21.256749 L11.5946555,21.4238497 L11.2369286,21.6140163 L10.9086251,21.7821926 C9.57755795,22.4597178 8,21.4937799 8,20 L8,20 L8,19 C4.27285013,19 1,15.3634999 1,11 C1,6.5377729 4.49099359,3 9,3 L9,3 Z M15,5 L9,5 C5.60156611,5 3,7.6364271 3,11 C3,14.3031668 5.42714987,17 8,17 L8,17 L9,17 C9.55228475,17 10,17.4477153 10,18 L10,18 L10,19.999 L10.3113445,19.8411503 L10.6455572,19.6634269 C11.7740931,19.0468761 12.4641772,18.4017399 13.194037,17.4080341 C13.3824481,17.1515119 13.6817197,17 14,17 L14,17 L15,17 C18.4477153,17 21,14.4477153 21,11 C21,7.55228475 18.4477153,5 15,5 L15,5 Z M12.0001686,13 C12.5524586,13 13.0001686,13.4477 13.0001686,14 C13.0001686,14.5523 12.5524586,15 12.0001686,15 C11.4478886,15 11.0001686,14.5523 11.0001686,14 C11.0001686,13.4477 11.4478886,13 12.0001686,13 Z M12.0001686,7 C12.5537486,7 13.1555886,7.16344 13.6376686,7.525 C14.1397686,7.90158 14.5001686,8.48991 14.5001686,9.25 C14.5001686,9.69838 14.3847686,10.07994 14.1710686,10.4004 C13.9664386,10.70737 13.7009186,10.91339 13.4787086,11.06154 C13.3700286,11.134 13.2594286,11.20036 13.1657686,11.25656 L13.1657686,11.25656 C13.0591686,11.32052 12.9769786,11.37001 12.9005986,11.42093 C12.7478286,11.52279 12.6695886,11.59803 12.6242286,11.66609 C12.3944886,12.01075 11.9288386,12.10391 11.5841786,11.87417 C11.2395186,11.64442 11.1463586,11.17878 11.3760986,10.83412 C11.5807386,10.52712 11.8462486,10.32107 12.0684786,10.1729 C12.1772086,10.10041 12.2878586,10.03402 12.3815586,9.9778 L12.3815586,9.9778 C12.4880486,9.9139 12.5702386,9.86441 12.6466286,9.81349 C12.7994086,9.71162 12.8776486,9.63639 12.9229986,9.56835 C12.9593586,9.51381 13.0001686,9.42662 13.0001686,9.25 C13.0001686,9.01009 12.9022286,8.84842 12.7376686,8.725 C12.5530786,8.58656 12.2799186,8.5 12.0001686,8.5 C11.6314086,8.5 11.4046986,8.59004 11.2599386,8.68654 C11.1104886,8.78617 11.0014986,8.92438 10.9209886,9.08541 C10.7357486,9.45589 10.2852386,9.60606 9.91475858,9.42082 C9.54426858,9.23558 9.39409858,8.78507 9.57934858,8.41459 C9.74882858,8.07562 10.0148386,7.71383 10.4278886,7.43846 C10.8456386,7.15996 11.3689286,7 12.0001686,7 Z"/>
</svg>

<svg xmlns="http://www.w3.org/2000/svg" viewBox="0 0 24 24">
  <path d="M15 3c4.55 0 8 3.45 8 8s-3.45 8-8 8h-.5l-.08.1a8.85 8.85 0 0 1-2.53 2.16l-.3.16-.35.2-.33.16A2 2 0 0 1 8 20v-1c-3.73 0-7-3.64-7-8 0-4.46 3.5-8 8-8zm0 2H9c-3.4 0-6 2.64-6 6 0 3.3 2.43 6 5 6h1a1 1 0 0 1 1 1v2l.31-.16.34-.18a7.16 7.16 0 0 0 2.54-2.25A1 1 0 0 1 14 17h1c3.45 0 6-2.55 6-6s-2.55-6-6-6zm-3 8a1 1 0 1 1 0 2 1 1 0 0 1 0-2zm0-6c.55 0 1.16.16 1.64.53.5.37.86.96.86 1.72a2.03 2.03 0 0 1-1.02 1.81l-.31.2-.27.16a.96.96 0 0 0-.28.25.75.75 0 0 1-1.24-.84c.2-.3.47-.5.69-.66l.31-.2c.1-.06.19-.1.27-.16.15-.1.23-.17.27-.24a.54.54 0 0 0 .08-.32c0-.24-.1-.4-.26-.53A1.26 1.26 0 0 0 12 8.5c-.37 0-.6.09-.74.19a1 1 0 0 0-.34.4.75.75 0 0 1-1.34-.68c.17-.33.43-.7.85-.97.42-.28.94-.44 1.57-.44z"/>
</svg>
